X: 41515
T: Ulverston Volunteers, The
R: jig
M: 6/8
K: Gmajor
d|:BGG dGG|e2 f g2 e|dGG eGG|FAA A2 d|
BGG dGG|e2 f gfe|dBG AGA|BGG G2 d:|
|:g2 d B2 G|efg dBG|ceB BdA|AGA A2 d|
BGG dGG|e2 f gfe|dBG AGA|1 BGG G2 d:|2 BGG G3||

